X:61
T:Sweet Robin. JGi.061
O:Tealby,Lincolnshire
M:9/8
L:1/8
Q:3/8=110
S:Joshua Gibbons MS,1823,Tealby,Lincs.
R:Slip Jig
Z:VMP/R.Greig, 2009
K:G
g|dcB AGA dBg|dcB AGA B2g|dcB AGA dBg|dcB AGA G2d|
gfg agf edB|gfg agd g2d|gfg agf efg|dgB AGAHB2Hg{fe}|
dcB AGA dBg|dcB AGAB2g|dcB AGA dBg|fed def g2|]

